!!!!SEGMENT: pl-kk--kk-i-6--029_lilius-franciszek--egredimini-et-videte.krn
!!!cenid: 16xx:1004
!!!COM: Lilius, Franciszek
!!!COM-rismid: pe30020509
!!!CDT: ~1600-1657
!!!CNT: Polish
!!!OTL: Egredimini et videte
!!!PDT:
!!!AGN: Sacred
!!!SMS-siglum: PL-Kk
!!!SMS-shelfmark: Kk.I.6
!!!SMS-shelfwork: 029 W
!!!SMS-variant:
!!!SMS-altvar:
!!!NIFC-rismid: 1001136136
!!!URL-scan: http://repozytorium.nifc.pl/skany/pl-kk-nut--i-6
!!!ONB-nifc: UWAGA: C (skan 0043, s. 82), T (skan 0148, s. 100-101), B (skan 0258-0259, s. 99-100)
**kern	**text	**kern	**text	**kern	**text
*part3	*part3	*part2	*part2	*part1	*part1
*staff3	*staff3	*staff2	*staff2	*staff1	*staff1
*Iempty	*	*Itenor	*	*Ivox	*
*I"Baſsus.	*	*I"Tenor.	*	*I"Cantus.	*
*I'B	*	*I'T	*	*I'S	*
*clefF4	*	*clefC4	*	*clefC4	*
*k[]	*	*k[]	*	*k[]	*
*F:	*	*F:	*	*F:	*
=1	=1	=1	=1	=1	=1
!LO:TX:t=De Conceptione B.V.M.\nF. L.	!	!LO:TX:t=De Conceptione B.V.M.\nF. L.	!	!LO:TX:t=De Conceptione. F.L.\nB.V. M.	!
!LO:TX:b:t=Egredi\nmini.	!	!LO:TX:b:t=Egredimini.	!	!	!
.	.	.	.	F/	E-
*	*	*	*	*lig	*
.	.	.	.	C/	-gre-
.	.	.	.	D/	.
*	*	*	*	*Xlig	*
*	*	*	*	*lig	*
.	.	.	.	D/	-di-
.	.	.	.	A/	.
.	.	.	.	c\	.
*	*	*	*	*Xlig	*
.	.	.	.	A\	-mi-
!	!	!	!	!LO:TX:t=P:problem:kreska pseudotaktowa	!
.	.	.	.	A;<\	-ni.
=2-	=2-	=2-	=2-	=2-	=2-
*M2/1	*	*M2/1	*	*M2/1	*
*met(c|)	*	*met(c|)	*	*met(c)	*
!	!	!	!	!LO:TX:t=P:problem:nie wyświetla się metrum	!
1F\	Et	1r	.	1A\	Et
*	*	*	*	*lig	*
1C/	vi-	>1.c\	Et	1G/	vi-
=3-	=3-	=3-	=3-	=3-	=3-
1D\	-de-	.	.	1F/	.
.	.	2B\	vi-	.	.
*	*	*	*	*Xlig	*
*	*	*	*	*lig	*
2C/	-te	1.c\	-de-	1G/	-de-
4C/	fi-	.	.	.	.
4BB/	.	.	.	.	.
=4-	=4-	=4-	=4-	=4-	=4-
4AA/	.	.	.	1A\	.
4FF/	.	.	.	.	.
2.F\	.	2c\	-te	.	.
*	*	*	*	*Xlig	*
.	.	2r	.	1A\	-te
4E\	.	.	.	.	.
4D/	.	2.d\	fi-	.	.
!LO:TX:a:t=P:problem:# below	!	!	!	!	!
4C#X/	.	.	.	.	.
=5-	=5-	=5-	=5-	=5-	=5-
*	*	*	*	*lig	*
2D/	.	.	.	1A\	fi-
.	.	4d\	-li-	.	.
!LO:SIC:v:t=custos “AA” na końcu linijki	!	!	!	!	!
2D/	-[li]-	2.A/	-ae	.	.
!LO:LB:g=original	!	!	!	!LO:SIC:v:t=custos G	!
2.AA/	-ae	.	.	1c\	.
.	.	4B\	.	.	.
.	.	2c\	.	.	.
4BB-X/	.	.	.	.	.
*	*	*	*	*Xlig	*
=6-	=6-	=6-	=6-	=6-	=6-
!	!	!	!	!LO:LB:g=original	!
1.Cny/	.	0c\	Sy-	1G/	-li-
*	*	*	*	*lig	*
.	.	.	.	1G/	-ae
2C/	Sy-	.	.	.	.
=7-	=7-	=7-	=7-	=7-	=7-
2FF/	-on	4A,</	-on	1F/,<	.
.	.	2c\	fi-	.	.
2.F\	fi-	.	.	.	.
!	!	!LO:SIC:v:t=custos “c” na końcu linijki	!	!	!
.	.	4c\	-li-	.	.
*	*	*	*	*Xlig	*
*	*	*	*	*lig	*
!	!	!LO:LB:g=original	!	!	!
.	.	2c\	-ae	1A\	Sy-
4F\	-li-	.	.	.	.
2F\	-ae	1A\	Sy-	.	.
=8-	=8-	=8-	=8-	=8-	=8-
4D/	Sy-	.	.	1F/	.
4C/	.	.	.	.	.
4D/	.	2d\	.	.	.
4E\	.	.	.	.	.
*lig	*	*	*	*Xlig	*
*	*	*	*	*lig	*
1F\	.	2c\	.	1A\	.
.	.	1d\	.	.	.
=9-	=9-	=9-	=9-	=9-	=9-
1G\	.	.	.	1B\	.
.	.	2B\	.	.	.
*Xlig	*	*	*	*Xlig	*
2F,<\	-on	2.A/	.	1c\	.
2.F\	.	.	.	.	.
.	.	4B\	.	.	.
=10-	=10-	=10-	=10-	=10-	=10-
.	.	2c\	.	1A\,<	-on
4E\	.	.	.	.	.
!LO:SIC:v:t=custos “AA” na końcu linijki	!	!	!	!	!
2D/	.	1d\	.	.	.
*	*	*	*	*lig	*
!LO:LB:g=original	!	!	!	!	!
1AA/	.	.	.	1A\	Re-
!	!	!LO:TX:t=P:problem:♯below	!	!	!
.	.	2c#X\	.	.	.
=11-	=11-	=11-	=11-	=11-	=11-
1D\	Re-	2d\	-on	1F/	.
.	.	4r	.	.	.
.	.	4d\	Re-	.	.
*lig	*	*	*	*Xlig	*
*	*	*	*	*lig	*
1E\	-gi-	2B\	-gi-	1G/	-gi-
.	.	2G/	-nam	.	.
=12-	=12-	=12-	=12-	=12-	=12-
1C/	.	4cny\	Ve-	1A\	.
.	.	4B\	.	.	.
.	.	4A/	.	.	.
!	!	!LO:SIC:v:t=custos “F” na końcu linijki	!	!	!
.	.	4G/	.	.	.
*Xlig	*	*	*	*Xlig	*
!	!	!LO:N:vis=2.	!	!	!
!	!	!LO:LB:g=original	!	!	!
2D/	.	2F/	.	1A\	-nam
2D/	-nam	4G/	.	.	.
.	.	2A/	.	.	.
=13-	=13-	=13-	=13-	=13-	=13-
*	*	*	*	*lig	*
1F\	Veſ-	.	.	1A\	Ve-
.	.	4G/	.	.	.
.	.	2F/	.	.	.
1C/	-tram	1G/	-ſtram	1c\	.
*	*	*	*	*Xlig	*
=14-	=14-	=14-	=14-	=14-	=14-
*	*	*	*ij	*lig	*
2r	.	4r	.	1B\	.
.	.	4d\	Re-	.	.
2G\	Re-	2B\	-gi-	.	.
2E\	-gi-	2G/	-nam	1c\	.
2C/	-nam	1c\	Ve-	.	.
*	*	*	*	*Xlig	*
=15-	=15-	=15-	=15-	=15-	=15-
*	*	*	*	*lig	*
4F\	Ve-	.	.	1A\	.
4E\	.	.	.	.	.
4D/	.	1d\	.	.	.
4C/	.	.	.	.	.
!	!	!	!	!LO:SIC:v:t=custos F	!
2BB-X/	.	.	.	1G/	.
2C/	.	2c\	.	.	.
*	*	*	*	*Xlig	*
=16-	=16-	=16-	=16-	=16-	=16-
!	!	!	!	!LO:LB:g=original	!
2FF,</	-tram	0A\	-ſtram	1F/,<	-ſtram
*	*	*	*Xij	*	*
!LO:SIC:v:t=custos “D” na końcu linijki	!	!	!	!	!
2D/	quam	.	.	.	.
!LO:LB:g=original	!	!	!	!	!
2D/	lau-	.	.	1F/	quam
2D/	-dant	.	.	.	.
=17-	=17-	=17-	=17-	=17-	=17-
2C/	a-	2r	.	1A\	lau-
2.AA/	.	4r	.	.	.
.	.	4c\	Quam	.	.
.	.	2A/	lau-	1c\	-dant
4BBny/	.	.	.	.	.
!	!	!LO:SIC:v:t=custos “G” na końcu linijki	!	!	!
2.C/	.	2A/	-dant	.	.
=18-	=18-	=18-	=18-	=18-	=18-
*	*	*	*	*lig	*
!	!	!LO:PB:g=original	!	!	!
.	.	2.G/	a-	1e\	A-
4D/	.	.	.	.	.
4E\	.	.	.	.	.
4F\	.	4A/	.	.	.
4G\	.	4B\	.	1d\	.
4A\	.	4c\	.	.	.
4B\	.	4d\	.	.	.
4G\	.	4B\	.	.	.
*	*	*	*	*Xlig	*
=19-	=19-	=19-	=19-	=19-	=19-
*	*	*	*	*lig	*
4A\	.	4e\	.	1c\	.
4B\	.	4d\	.	.	.
2c\	.	1c\	.	.	.
1G\	.	.	.	1d\	.
.	.	2B\	.	.	.
*	*	*	*	*Xlig	*
=20-	=20-	=20-	=20-	=20-	=20-
*	*	*	*	*lig	*
2C/	-ſtra	1c\	-ſtra	1c\	-ſtra
2F\	quam	.	.	.	.
2F\	lau-	2r	.	1A\	.
*	*	*	*ij	*	*
2F\	-dant	2c\	Quam	.	.
!LO:SIC:v:t=custos “E” na końcu linijki	!	!	!	!	!
*	*	*	*	*Xlig	*
=21-	=21-	=21-	=21-	=21-	=21-
*	*	*	*	*lig	*
!LO:LB:g=original	!	!	!	!	!
2E\	a-	2c\	lau-	1G/	ma-
2.C/	.	2c\	-dant	.	.
.	.	2G/	a-	1c\	.
4D/	.	.	.	.	.
4E\	.	2G,</	-ſtra	.	.
4C/	.	.	.	.	.
*	*	*	*Xij	*Xlig	*
=22-	=22-	=22-	=22-	=22-	=22-
2F\	.	2A/	Ma-	1c\	-tu-
!	!	!LO:SIC:v:t=custos “A” na końcu linijki	!	!	!
2E\	-ſtra	2c\	-tu-	.	.
*	*	*	*	*lig	*
!	!	!LO:LB:g=original	!	!	!
2F\	ma-	4A/	-ti-	1c\	-ti-
.	.	4B\	.	.	.
2A\	-tu-	1c\	.	.	.
=23-	=23-	=23-	=23-	=23-	=23-
2G\	-ti-	.	.	1d\	.
2GG/	.	1B\	.	.	.
*	*	*	*	*Xlig	*
*	*	*	*	*lig	*
4AA/	.	.	.	1c\	.
4BB/	.	.	.	.	.
4C/	.	1A\	.	.	.
4D/	.	.	.	.	.
=24-	=24-	=24-	=24-	=24-	=24-
1E\	.	.	.	1B\	.
!	!	!LO:TX:t=P:problem:♯below	!	!	!
.	.	2G#X/	.	.	.
*	*	*	*	*Xlig	*
!LO:SIC:v:t=custos “E” na końcu linijki	!	!	!	!	!
1AA/	-na	1A\	-na	1A\,<	-na
=25-	=25-	=25-	=25-	=25-	=25-
!LO:PB:g=original	!	!	!	!LO:SIC:v:t=custos “F” na końcu linijki	!
0rD	.	00r	.	1A\	Cu-
!	!	!	!	!LO:LB:g=original	!
.	.	.	.	1F/	-ius
=26-	=26-	=26-	=26-	=26-	=26-
*	*	*	*	*lig	*
2r	.	.	.	1G/	pul-
2E\	Cu-	.	.	.	.
2C/	-ius	.	.	1A\	.
1D\	pul-	.	.	.	.
*	*	*	*	*Xlig	*
=27-	=27-	=27-	=27-	=27-	=27-
*	*	*	*	*lig	*
.	.	2r	.	1A\	-chri-
2D/	-chri-	2d\	Cu-	.	.
4E\	-tu-	2A\	-ius	1G/	.
4F\	.	.	.	.	.
4G\	.	2.e\	pul-	.	.
4E\	.	.	.	.	.
*	*	*	*	*Xlig	*
=28-	=28-	=28-	=28-	=28-	=28-
*lig	*	*	*	*	*
*col	*	*	*	*lig	*
1A\	.	.	.	1c\	-tu-
.	.	4d\	-chri-	.	.
.	.	1c\	-tu-	.	.
2.G\	.	.	.	1d\	.
*	*	*	*	*Xlig	*
.	.	2B\	-di-	.	.
*Xlig	*	*	*	*	*
*Xcol	*	*	*	*	*
4G\	-di-	.	.	.	.
=29-	=29-	=29-	=29-	=29-	=29-
2C/	-nem	2c\	-nem	1c\	-di-
2C/	ſol	2Gny/	ſol	.	.
2F\	et	2A/	et	1c\,<	-nem
2.A\	lu-	2.c\	lu-	.	.
=30-	=30-	=30-	=30-	=30-	=30-
.	.	.	.	1A\,<	ſol
4G\	-na	4B\	-na	.	.
!	!	!LO:SIC:v:t=custos “f” na końcu linijki	!	!	!
2F\	mi-	2A/	mi-	.	.
*	*	*	*	*lig	*
!	!	!LO:LB:g=original	!	!	!
4D\	-ran-	4f\	-ran-	1A\	et
4E\	.	4e\	.	.	.
4F\	.	1d\	.	.	.
!LO:SIC:v:t=custos “E” na końcu linijki	!	!	!	!	!
4D\	.	.	.	.	.
=31-	=31-	=31-	=31-	=31-	=31-
!LO:LB:g=original	!	!	!	!	!
1E\	.	.	.	1G/	.
!	!	!LO:TX:b:t=P:problem:# below	!	!	!
.	.	2c#X\	.	.	.
*	*	*	*	*Xlig	*
2D,</	-tur	1d\	-tur	1A\,<	.
2D/	ſol	.	.	.	.
=32-	=32-	=32-	=32-	=32-	=32-
*	*	*	*	*lig	*
2A\	et	1r	.	1c\	lu-
2.c\	lu-	.	.	.	.
.	.	2r	.	1d\	.
4c\	-na	.	.	.	.
2B\	mi-	2G/	ſol	.	.
*	*	*	*	*Xlig	*
=33-	=33-	=33-	=33-	=33-	=33-
*lig	*	*	*	*	*
1A\	-ran-	2A/	et	1c\,<	-na
.	.	2.cny\	lu-	.	.
1G\	.	.	.	1d\	mi-
.	.	4c\	-na	.	.
.	.	2B\	mi-	.	.
*Xlig	*	*	*	*	*
=34-	=34-	=34-	=34-	=34-	=34-
*	*	*	*	*lig	*
2.E\	.	0G/	-ran-	1e\	-ran-
4F\	.	.	.	.	.
1G\	.	.	.	1d\	.
*	*	*	*	*Xlig	*
=35-	=35-	=35-	=35-	=35-	=35-
!	!	!	!	!LO:SIC:v:t=custos A	!
2C,</	-tur	1G/	-tur	1c\,<	-tur.
2C/	et	.	.	.	.
*	*	*	*	*lig	*
!	!	!	!	!LO:LB:g=original	!
2F\	iu-	0rG	.	1A\	et
4F\	-bi-	.	.	.	.
4F\	-lant	.	.	.	.
=36-	=36-	=36-	=36-	=36-	=36-
4E\	O-	.	.	1G/	.
4D/	.	.	.	.	.
4C/	.	.	.	.	.
!LO:SIC:v:t=custos “D” na końcu linijki	!	!	!	!	!
4E\	.	.	.	.	.
*	*	*	*	*Xlig	*
!LO:LB:g=original	!	!	!	!	!
1D\	.	1rA	.	1A\	iu-
=37-	=37-	=37-	=37-	=37-	=37-
*	*	*	*	*lig	*
1C/	-mnes	2rF	.	1c\	.
.	.	2C/	et	.	.
2rBB	.	2G/	iu-	1d\	.
2GG/	et	4G/	-bi-	.	.
!	!	!LO:SIC:v:t=custos “E” na końcu linijki	!	!	!
.	.	4G/	-lant	.	.
*	*	*	*	*Xlig	*
=38-	=38-	=38-	=38-	=38-	=38-
!	!	!LO:LB:g=original	!	!	!
2C/	iu-	4E/	O-	1c\	-bi-
.	.	4F/	.	.	.
4C/	-bi-	4G/	.	.	.
4C/	-lant	4E/	.	.	.
*	*	*	*	*lig	*
4FF/	O-	1F/	.	1A\	-lant
4GG/	.	.	.	.	.
4AA/	.	.	.	.	.
4FF/	.	.	.	.	.
=39-	=39-	=39-	=39-	=39-	=39-
2C/	.	2E,</	-mnes	1G/	.
*	*	*	*ij	*	*
4C,</	-mnes	2E/	et	.	.
4C/	et	.	.	.	.
*	*	*	*	*Xlig	*
2D/	iu-	2A/	iu-	1F/	o-
4D/	-bi-	4A/	-bi-	.	.
4D/	-lant	4A/	-lant	.	.
=40-	=40-	=40-	=40-	=40-	=40-
1AA/	O-	1A\	O-	1E/	.
2D/	-mnes	2A,</	-mnes	1D/	-mnes
*	*	*	*Xij	*	*
2.BB-X/	fi-	2.d\	fi-	.	.
=41-	=41-	=41-	=41-	=41-	=41-
*	*	*	*	*lig	*
.	.	.	.	1D/	fi-
4AA/	-li-	4c\	-lÿ	.	.
!LO:SIC:v:t=custos “FF” na końcu linijki	!	!	!	!	!
2GG/	-i	2B-X\	.	.	.
!LO:LB:g=original	!	!	!	!	!
4FF/	De-	2A/	De-	1F/	.
4GG/	.	.	.	.	.
4AA/	.	2A/	-i	.	.
4FF/	.	.	.	.	.
*	*	*	*	*Xlig	*
=42-	=42-	=42-	=42-	=42-	=42-
1C/	.	2r	.	1G/	.
.	.	2.c\	fi-	.	.
*	*	*	*	*lig	*
2FF/	-i	.	.	1A\	.
.	.	4Bny\	-li-	.	.
!	!	!LO:SIC:v:t=custos “B” na końcu linijki	!	!	!
2.F\	fi-	2A/	-i	.	.
=43-	=43-	=43-	=43-	=43-	=43-
!	!	!LO:LB:g=original	!	!	!
.	.	2B\	De-	1G/	.
4F\	-li-	.	.	.	.
2E\	-i	2G/	.	.	.
*lig	*	*	*	*Xlig	*
1D\	De-	1d\	.	1F/	-lÿ
=44-	=44-	=44-	=44-	=44-	=44-
1C/	.	2G/	-i	1E/	.
.	.	2.c\	fi-	.	.
*Xlig	*	*	*	*lig	*
2.FF/	.	.	.	1F/	De-
.	.	4B\	-li-	.	.
.	.	2A/	-i	.	.
4GG/	.	.	.	.	.
=45-	=45-	=45-	=45-	=45-	=45-
1AA/	.	1A\	De-	1E/	.
*	*	*	*	*Xlig	*
!	!	!LO:TX:a:t=P:problem:# above	!	!	!
1D\	-i	1F#X/	-i	00D/	-i.
=46-	=46-	=46-	=46-	=46-	=46-
2r	.	2rF	.	.	.
*	*ij	*	*ij	*	*
2.GG/	fi-	2.G/	fi-	.	.
4GG/	-li-	4G/	-li-	.	.
!	!	!LO:TX:a:t=P:problem:# below	!	!	!
2D/	-i	2F#X/	-i	.	.
=47-	=47-	=47-	=47-	=47-	=47-
1GG/	De-	1G/	De-	.	.
!LO:TX:t=P:problem:podwójna fermata powyżej i poniżej	!	!LO:TX:a:t=P:problem:# below	!	!LO:TX:t=P:problem:podwójna fermata powyżej i poniżej	!
!LO:TX:t=P:problem:brak kreski finalnej	!	!LO:TX:t=P:problem:brak kreski finalnej	!	!LO:TX:t=P:problem:brak kreski finalnej	!
!LO:N:vis=0	!	!LO:N:vis=0	!	!LO:N:vis=0	!
!	!	!LO:TX:t=P:problem:podwójna fermata powyżej i poniżej	!	!	!
1D\;	-i	1F#X/;	-i	1D/;	.
*	*Xij	*	*Xij	*	*
==	==	==	==	==	==
*-	*-	*-	*-	*-	*-
!!!system-decoration: [(s1,s2,s3)]
!!!RDF**kern: > = above
!!!RDF**kern: < = below
!!!EED: Andrzej Borzym
!!!EST: 2021-03-23
!!!AIN: 1 empty 1 tenor 1 vox
!!!ENC: Tomasz Grochalski
!!!END: 2021-03-09
